icon/svg/1.14/transparent.svg

<?xml version="1.0" encoding="UTF-8"?>
<svg id="Layer_1" data-name="Layer 1" xmlns="http://www.w3.org/2000/svg" xmlns:xlink="http://www.w3.org/1999/xlink" viewBox="0 0 180 180">
  <defs>
    <filter id="drop-shadow-5" filterUnits="userSpaceOnUse">
      <feOffset dx="11.73" dy="11.73"/>
      <feGaussianBlur result="blur" stdDeviation="16.76"/>
      <feFlood flood-color="#000" flood-opacity=".9"/>
      <feComposite in2="blur" operator="in"/>
      <feComposite in="SourceGraphic"/>
    </filter>
  </defs>
  <path d="M158.61,101.45l-57.17,57.17c-6.32,6.31-16.56,6.31-22.88,0L21.39,101.45c-6.32-6.32-6.32-16.57,0-22.89L78.56,21.39c6.32-6.32,16.56-6.32,22.88,0l57.17,57.17c6.32,6.32,6.32,16.57,0,22.89Z" style="fill: #1c133a;"/>
  <g style="filter: url(#drop-shadow-5);">
    <g>
      <g>
        <path d="M67.17,75.15c-.16-.49-.39-.85-.69-1.06-.3-.22-.73-.41-1.29-.57-.57-.17-1.35-.25-2.36-.25s-1.95,.43-2.81,1.29l-.15,.1-8.15,7.35c-1.19,1.06-1.79,2.04-1.79,2.93s.52,1.92,1.57,3.08c1.04,1.16,2.04,1.74,3,1.74s2.12-.51,3.48-1.54l.65-.59v17.73c0,.8,.02,1.4,.07,1.82,.05,.41,.21,.87,.47,1.36,.5,.86,1.78,1.3,3.83,1.3s3.41-.45,3.88-1.35c.26-.49,.42-.93,.47-1.31,.05-.38,.07-.95,.07-1.72v-27.67c0-1.19-.08-2.07-.25-2.64Z" style="fill: #fff;"/>
        <path d="M79.1,101.54c-.76-.7-2.15-1.05-4.15-1.05s-3.26,.5-3.75,1.49c-.27,.5-.43,.95-.48,1.35-.05,.39-.07,.97-.07,1.74v.19c0,1.76,.32,2.95,.97,3.58,.65,.63,1.97,.95,3.97,.95s3.26-.48,3.76-1.45c.29-.52,.47-.98,.52-1.36,.05-.38,.07-.97,.07-1.77v-.19c0-1.76-.28-2.92-.84-3.48Z" style="fill: #fff;"/>
        <path d="M99.17,75.15c-.17-.49-.4-.85-.69-1.06-.3-.22-.73-.41-1.3-.57-.56-.17-1.35-.25-2.36-.25s-1.94,.43-2.8,1.29l-.15,.1-8.15,7.35c-1.19,1.06-1.79,2.04-1.79,2.93s.52,1.92,1.57,3.08c1.04,1.16,2.04,1.74,3,1.74s2.12-.51,3.48-1.54l.65-.59v17.73c0,.8,.02,1.4,.07,1.82,.05,.41,.21,.87,.47,1.36,.5,.86,1.77,1.3,3.83,1.3s3.41-.45,3.87-1.35c.27-.49,.42-.93,.47-1.31,.05-.38,.08-.95,.08-1.72v-27.67c0-1.19-.08-2.07-.25-2.64Z" style="fill: #fff;"/>
        <path d="M128.76,75.95c-.05-.4-.21-.84-.47-1.32-.27-.48-.72-.82-1.34-1.04-.63-.22-1.47-.32-2.51-.32s-1.89,.09-2.54,.27c-.64,.18-1.1,.51-1.36,.97-.27,.46-.43,.88-.48,1.24-.05,.37-.07,.93-.07,1.69v13.56h-8.1l3.03-12.12s.02-.08,.05-.15c.23-.86,.35-1.55,.35-2.08,0-1.5-1.16-2.56-3.48-3.18-.83-.24-1.59-.35-2.29-.35s-1.26,.18-1.71,.54c-.45,.37-.74,.75-.89,1.15-.15,.39-.33,.97-.53,1.74l-4.12,16.64c-.1,.43-.15,1.09-.15,1.99s.08,1.6,.25,2.13c.43,1.26,1.81,1.89,4.12,1.89h13.47v6.06c0,1.16,.1,2.02,.3,2.59,.13,.43,.34,.76,.64,.99,.3,.23,.73,.43,1.29,.6,.57,.16,1.33,.25,2.29,.25s1.76-.1,2.41-.3,1.13-.61,1.44-1.22c.32-.61,.47-1.56,.47-2.86v-27.62c0-.76-.02-1.34-.07-1.74Z" style="fill: #fff;"/>
      </g>
      <path d="M158.61,101.45l-57.17,57.17c-6.32,6.31-16.56,6.31-22.88,0L21.39,101.45c-6.32-6.32-6.32-16.57,0-22.89L78.56,21.39c6.32-6.32,16.56-6.32,22.88,0l57.17,57.17c6.32,6.32,6.32,16.57,0,22.89Z" style="fill: none; stroke: #945cff; stroke-miterlimit: 10; stroke-width: 13.77px;"/>
    </g>
  </g>
</svg>

<?xml version="1.0" encoding="UTF-8" standalone="no"?>
<!DOCTYPE svg PUBLIC "-//W3C//DTD SVG 1.1//EN" "http://www.w3.org/Graphics/SVG/1.1/DTD/svg11.dtd">
<svg width="100%" height="100%" viewBox="0 0 180 180" version="1.1" xmlns="http://www.w3.org/2000/svg" xmlns:xlink="http://www.w3.org/1999/xlink" xml:space="preserve" xmlns:serif="http://www.serif.com/" style="fill-rule:evenodd;clip-rule:evenodd;stroke-miterlimit:10;">
    <g transform="matrix(1,0,0,1,-220,-610)">
        <g transform="matrix(1,0,0,1,3,0)">
            <g id="_1.14-transparent" serif:id="1.14/transparent" transform="matrix(0.9,0,0,0.9,217,610)">
                <rect x="0" y="0" width="200" height="200" style="fill:none;"/>
                <clipPath id="_clip1">
                    <rect x="0" y="0" width="200" height="200"/>
                </clipPath>
                <g clip-path="url(#_clip1)">
                    <g transform="matrix(1.11111,0,0,1.11111,-3.55271e-15,0.00129969)">
                        <path d="M158.61,101.45L101.44,158.62C95.12,164.93 84.88,164.93 78.56,158.62L21.39,101.45C15.07,95.13 15.07,84.88 21.39,78.56L78.56,21.39C84.88,15.07 95.12,15.07 101.44,21.39L158.61,78.56C164.93,84.88 164.93,95.13 158.61,101.45Z" style="fill:rgb(28,19,58);fill-rule:nonzero;"/>
                    </g>
                    <g transform="matrix(1.11111,0,0,1.11111,-3.55271e-15,-0.00407747)">
                        <g>
                            <path d="M67.17,75.15C67.01,74.66 66.78,74.3 66.48,74.09C66.18,73.87 65.75,73.68 65.19,73.52C64.62,73.35 63.84,73.27 62.83,73.27C61.82,73.27 60.88,73.7 60.02,74.56L59.87,74.66L51.72,82.01C50.53,83.07 49.93,84.05 49.93,84.94C49.93,85.83 50.45,86.86 51.5,88.02C52.54,89.18 53.54,89.76 54.5,89.76C55.46,89.76 56.62,89.25 57.98,88.22L58.63,87.63L58.63,105.36C58.63,106.16 58.65,106.76 58.7,107.18C58.75,107.59 58.91,108.05 59.17,108.54C59.67,109.4 60.95,109.84 63,109.84C65.05,109.84 66.41,109.39 66.88,108.49C67.14,108 67.3,107.56 67.35,107.18C67.4,106.8 67.42,106.23 67.42,105.46L67.42,77.79C67.42,76.6 67.34,75.72 67.17,75.15Z" style="fill:white;fill-rule:nonzero;"/>
                            <path d="M79.1,101.54C78.34,100.84 76.95,100.49 74.95,100.49C72.95,100.49 71.69,100.99 71.2,101.98C70.93,102.48 70.77,102.93 70.72,103.33C70.67,103.72 70.65,104.3 70.65,105.07L70.65,105.26C70.65,107.02 70.97,108.21 71.62,108.84C72.27,109.47 73.59,109.79 75.59,109.79C77.59,109.79 78.85,109.31 79.35,108.34C79.64,107.82 79.82,107.36 79.87,106.98C79.92,106.6 79.94,106.01 79.94,105.21L79.94,105.02C79.94,103.26 79.66,102.1 79.1,101.54Z" style="fill:white;fill-rule:nonzero;"/>
                            <path d="M99.17,75.15C99,74.66 98.77,74.3 98.48,74.09C98.18,73.87 97.75,73.68 97.18,73.52C96.62,73.35 95.83,73.27 94.82,73.27C93.81,73.27 92.88,73.7 92.02,74.56L91.87,74.66L83.72,82.01C82.53,83.07 81.93,84.05 81.93,84.94C81.93,85.83 82.45,86.86 83.5,88.02C84.54,89.18 85.54,89.76 86.5,89.76C87.46,89.76 88.62,89.25 89.98,88.22L90.63,87.63L90.63,105.36C90.63,106.16 90.65,106.76 90.7,107.18C90.75,107.59 90.91,108.05 91.17,108.54C91.67,109.4 92.94,109.84 95,109.84C97.06,109.84 98.41,109.39 98.87,108.49C99.14,108 99.29,107.56 99.34,107.18C99.39,106.8 99.42,106.23 99.42,105.46L99.42,77.79C99.42,76.6 99.34,75.72 99.17,75.15Z" style="fill:white;fill-rule:nonzero;"/>
                            <path d="M128.76,75.95C128.71,75.55 128.55,75.11 128.29,74.63C128.02,74.15 127.57,73.81 126.95,73.59C126.32,73.37 125.48,73.27 124.44,73.27C123.4,73.27 122.55,73.36 121.9,73.54C121.26,73.72 120.8,74.05 120.54,74.51C120.27,74.97 120.11,75.39 120.06,75.75C120.01,76.12 119.99,76.68 119.99,77.44L119.99,91L111.89,91L114.92,78.88C114.92,78.88 114.94,78.8 114.97,78.73C115.2,77.87 115.32,77.18 115.32,76.65C115.32,75.15 114.16,74.09 111.84,73.47C111.01,73.23 110.25,73.12 109.55,73.12C108.85,73.12 108.29,73.3 107.84,73.66C107.39,74.03 107.1,74.41 106.95,74.81C106.8,75.2 106.62,75.78 106.42,76.55L102.3,93.19C102.2,93.62 102.15,94.28 102.15,95.18C102.15,96.08 102.23,96.78 102.4,97.31C102.83,98.57 104.21,99.2 106.52,99.2L119.99,99.2L119.99,105.26C119.99,106.42 120.09,107.28 120.29,107.85C120.42,108.28 120.63,108.61 120.93,108.84C121.23,109.07 121.66,109.27 122.22,109.44C122.79,109.6 123.55,109.69 124.51,109.69C125.47,109.69 126.27,109.59 126.92,109.39C127.57,109.19 128.05,108.78 128.36,108.17C128.68,107.56 128.83,106.61 128.83,105.31L128.83,77.69C128.83,76.93 128.81,76.35 128.76,75.95Z" style="fill:white;fill-rule:nonzero;"/>
                        </g>
                        <path d="M158.61,101.45L101.44,158.62C95.12,164.93 84.88,164.93 78.56,158.62L21.39,101.45C15.07,95.13 15.07,84.88 21.39,78.56L78.56,21.39C84.88,15.07 95.12,15.07 101.44,21.39L158.61,78.56C164.93,84.88 164.93,95.13 158.61,101.45Z" style="fill:none;fill-rule:nonzero;stroke:rgb(148,92,255);stroke-width:13.77px;"/>
                    </g>
                </g>
            </g>
        </g>
    </g>
</svg>
